X:1
T:Title
%%score 1 2 3
L:1/8
M:4/2
K:F
V:1 bass nm="Part_1"
V:2 bass nm="Part_2"
V:3 bass nm="Part_3"
V:1
 z8 G,,8- | G,,4 A,,4 B,,4 C,4 | D,4 B,,4 A,,6 A,,2 | G,,8 z8 | z8 z8 | z8 z8 | z8 z8 | z8 z8 | %8
 z8 z8 | z8 G,6 D,2 | _E,4 D,4 C,2 B,,2 A,,3 A,, | G,,4 G,4 D,4 F,2 F,2 | %12
 C,4 _E,2 B,,2 F,3 F, E,3 E, | D,4 C,2 C,2 B,,3 B,, A,,3 A,, | %14
 G,,A,,B,,C,D,B,,D,E,F,G,A,F, G,2 F,E, | D,2 C,2 D,4 G,,8 | z4 G,4 F,3 F, _E,3 E, | %17
 D,4 C,2 C,2 B,,3 B,, A,,3 A,, | G,,4 F,,4 z8 | z4 z2 F,2 ^C,3 D, _E,2 =B,,2 | C,4 D,4 G,,8 | %21
 z4 G,,4 C,8 | G,,8 z4 z2 D,2- | D,2 D,2 A,,2 A,,A,, D,2 D,D, A,,4 | D,,4 z2 A,,A,, D,2 D,D, G,4 | %25
 C,4 z2 F,,F,, B,,2 B,,G,, D,4 |[M:6/2] G,,24 | z24 | z8 z8 D,8 | G,8 G,4 G,4 G,4 E,4 | %30
 F,8 D,8 G,8 | E,24 | z8 z8 C,8 | F,8 F,4 F,4 F,4 D,4 | _E,8 C,8 F,8 | B,,24 | %36
 F,,12 G,,4 A,,4 B,,4 | C,16 C,8 | G,,12 A,,4 B,,4 C,4 | D,16 D,8 | G,,12 G,,4 G,,8 | D,16 D,8 | %42
 B,,8 A,,8 A,,8 |[M:4/2] D,8 z8 | z16 | z16 |[M:6/2] z24 | z24 | z8 z8 F,,8 | B,,16 D,8 | %50
 C,16 C,8 | F,,24 | z24 |[M:4/2] z4 C,4 G,,8 | C,2 C,4 B,,A,, G,,4 G,,4 | z2 D,4 C,B,, A,,4 A,,4 | %56
 C,4 B,,2 A,,2 G,,8 | F,,8 z2 C,2 C,D,E,F, | G,2 G,2 z4 z2 D,2 D,E,F,G, | A,4 D,4 z8 | %60
 z2 D,3 D, =B,,2 C,4 D,4 | G,,4 C,6 C,2 A,,4 | B,,4 C,4 F,,4 F,4 | D,6 C,B,, A,,4 A,,4 | D,8 z8 | %65
 z4 D,8 B,,4 | A,,8 G,,8 | z16 | z4 C,8 A,,4 | G,,8 F,,8 | z16 | z4 _E,8 =B,,4 | C,16 | G,,16 |] %74
V:2
 G,,12 A,,4 | B,,4 C,4 D,4 E,4 | ^F,4 G,8 F,4 | G,8 G,6 D,2 | _E,4 D,4 C,2 B,,2 A,,3 A,, | %5
 G,,4 G,4 D,4 F,2 F,2 | C,4 _E,2 B,,2 F,3 F, E,3 E, | D,4 C,2 C,2 B,,3 B,, A,,3 A,, | %8
 G,,A,,B,,C,D,B,,D,E,F,G,A,F, G,2 F,E, | D,2 C,2 D,4 G,,8 | z16 | z16 | z16 | z16 | z16 | %15
 z8 z4 G,4 | F,3 F, _E,3 E, D,4 C,2 C,2 | B,,3 B,, A,,3 A,, G,,4 F,,4 | %18
 z4 z2 F,2 ^C,3 D, _E,2 =B,,2 | C,4 D,2 D,2 E,3 F, G,2 D,2 | E,^F,G,E, F, G,2 F, G,8 | %21
 z4 G,4 E,3 D,C,D,E,F, | G,4 G,2 G,4 G,2 D,4 | z8 z4 z2 A,,A,, | D,2 D,D, A,,4 D,,4 z2 G,,G,, | %25
 C,2 C,C, F,3 E, D,2 G,4 F,2 |[M:6/2] G,16 G,,8 | D,8 D,4 D,4 D,4 =B,,4 | C,8 A,,8 D,8 | G,,16 z8 | %30
 z8 z8 G,,8 | C,8 C,4 C,4 C,4 A,,4 | B,,8 G,,8 C,8 | F,,16 z8 | z24 | B,,12 C,4 D,4 E,4 | %36
 F,16 F,8 | C,12 D,4 E,4 F,4 | G,16 G,8 | D,12 D,4 D,8 | G,12 G,4 G,8 | F,16 F,8 | F,8 A,8 E,8 | %43
[M:4/2] ^F,8 G,6 =F,2 | _E,4 E,2 D,2 C,4 B,,2 B,2 | B,A,G,F, _E,2 D,2 C,2 B,,2 F,,4 | %46
[M:6/2] B,,16 B,,8 | _E,16 G,8 | F,16 F,8 | B,,16 z8 | z8 z8 C,8 | F,16 A,8 | G,16 E,8 | %53
[M:4/2] D,4 E,4 G,8 | C,8 z2 G,4 F,E, | D,3 E, F,2 G,2 A,2 A,4 G,F, | E,4 F,8 E,4 | %57
 F,2 F,,2 F,,G,,A,,B,, C,2 C,2 z4 | z2 G,,2 G,,A,,B,,C, D,2 D,2 z4 | z2 A,3 A, ^F,2 G,4 A,4 | %60
 D,4 z4 z8 | z4 C,6 E,2 F,4 | D,4 E,4 F,8 | z8 z4 A,4 | F,3 E, D,2 C,B,, A,,4 A,,4 | D,8 z8 | %66
 z8 z4 G,4- | G,4 E,4 D,8 | C,8 z8 | z8 z4 F,4- | F,4 D,4 C,8 | B,,4 G,8 D,4 | _E,6 F,2 G,4 C,4 | %73
 G,16 |] %74
V:3
 G,,8 G,,8- | G,,4 A,,4 B,,4 C,4 | D,4 B,,4 A,,8 | G,,8 G,6 D,2 | _E,4 D,4 C,2 B,,2 A,,3 A,, | %5
 G,,4 G,4 D,4 F,2 F,2 | C,4 _E,2 B,,2 F,3 F, E,3 E, | D,4 C,2 C,2 B,,3 B,, A,,3 A,, | %8
 G,,A,,B,,C,D,B,,D,E,F,G,A,F, G,2 F,E, | D,2 C,2 D,4 G,,6 D,2 | _E,4 D,4 C,2 B,,2 A,,3 A,, | %11
 G,,4 G,4 D,4 F,2 F,2 | C,4 _E,2 B,,2 F,3 F, E,3 E, | D,4 C,2 C,2 B,,3 B,, A,,3 A,, | %14
 G,,A,,B,,C,D,B,,D,E,F,G,A,F, G,2 F,E, | D,2 C,2 D,4 G,,4 G,4 | F,3 F, _E,3 E, D,4 C,2 C,2 | %17
 B,,3 B,, A,,3 A,, G,,4 F,,4 | G,,4 F,,2 F,2 ^C,3 D, _E,2 =B,,2 | C,4 D,2 D,2 ^C,3 D, _E,2 =B,,2 | %20
 C,4 D,4 G,,8 | z4 G,,4 C,8 | G,,6 G,2 G,4 D,2 D,2- | D,2 D,2 A,,2 A,,A,, D,2 D,D, A,,2 A,,A,, | %24
 D,4 A,,4 D,4 G,,4 | C,4 F,,4 B,,2 B,,G,, D,4 |[M:6/2] G,,16 G,,8 | D,8 D,4 D,4 D,4 =B,,4 | %28
 C,8 A,,8 D,8 | G,8 G,4 G,4 G,4 E,4 | F,8 D,8 G,,8 | C,8 C,4 C,4 C,4 A,,4 | B,,8 G,,8 C,8 | %33
 F,8 F,4 F,4 F,4 D,4 | _E,8 C,8 F,8 | B,,24 | F,,12 G,,4 A,,4 B,,4 | C,16 C,8 | %38
 G,,12 A,,4 B,,4 C,4 | D,16 D,8 | G,,12 G,,4 G,,8 | D,16 D,8 | B,,8 A,,8 A,,8 | %43
[M:4/2] D,8 G,6 F,2 | _E,4 E,2 D,2 C,4 B,,2 B,2 | B,A,G,F, _E,2 D,2 C,2 B,,2 F,4 | %46
[M:6/2] B,,16 B,,8 | _E,16 G,8 | F,16 F,,8 | B,,16 D,8 | C,16 C,8 | F,16 A,8 | G,16 E,8 | %53
[M:4/2] D,4 C,4 G,,8 | C,2 C,4 B,,A,, G,,4 G,,4 | D,6 C,B,, A,,4 A,,4 | C,4 B,,2 A,,2 G,,8 | %57
 F,,8 C,8 | G,,8 D,8 | A,,4 D,4 G,,4 A,,4 | D,2 D,3 D, =B,,2 C,4 D,4 | G,,4 C,6 C,2 A,,4 | %62
 B,,4 C,4 F,,4 F,4 | D,6 C,B,, A,,8 | D,6 C,B,, A,,8 | D,4 D,8 B,,4 | A,,8 G,,4 G,4- | %67
 G,4 E,4 D,8 | C,4 C,8 A,,4 | G,,8 F,,4 F,4- | F,4 D,4 C,8 | B,,4 _E,8 =B,,4 | C,16 | G,,16 |] %74

